X:1054
M:C
L:1/8
Q:1/4=76 "Slow & Tender"
K:G
g3 a  b2 (ba) |(ag)(gd)  d4    | e2  d2   g2(fg)|({f} e4) d4 |
g2g2 (gb)(bd')| d2 (de)  ed cB |(cd)(ef) (f>agB)|({B}TA4) G4:|
g2g2  gb``bd' | d2 (de) (ed`cB)|(cd``ef)  f>agB |({B}TA4) G4:|


